assets/images/svg/logo-3.svg

<svg width="43" height="42" viewBox="0 0 43 42" fill="none" xmlns="http://www.w3.org/2000/svg">
<g filter="url(#filter0_d_597_14)">
<path d="M25.82 19.26L29.24 19.48C29.88 18.0267 30.7 17.3 31.7 17.3C31.8867 17.3 32.0133 17.3867 32.08 17.56L32.1 17.64C31.2867 17.64 30.6467 18.2333 30.18 19.42C31.5267 19.2067 32.4733 18.6333 33.02 17.7C33.2333 17.3267 33.34 17.0267 33.34 16.8C33.34 16.2667 33.1533 16 32.78 16C32.86 15.7733 33.02 15.66 33.26 15.66C33.7133 15.66 33.94 15.9733 33.94 16.6C33.94 17.2133 33.6933 17.8133 33.2 18.4C32.48 19.2667 31.4133 19.7733 30 19.92C29.7067 20.88 29.4667 22.08 29.28 23.52C29.0933 24.96 28.9867 25.7667 28.96 25.94C29.4667 25.58 30.34 24.9867 31.58 24.16C32.82 23.3333 33.6267 22.7933 34 22.54C34.6 20.3667 35.3733 18.5667 36.32 17.14C37.28 15.7133 38.2867 15 39.34 15C39.7 15 39.98 15.1133 40.18 15.34C40.3933 15.5667 40.5 15.86 40.5 16.22C40.5 17.1933 40.0333 18.1867 39.1 19.2C38.1667 20.2133 36.8667 21.3067 35.2 22.48C34.6 24.8933 34.3 27.2267 34.3 29.48C34.3 31.48 34.5867 32.9733 35.16 33.96C35.6133 34.7333 36.2267 35.12 37 35.12C36.92 35.3867 36.7333 35.52 36.44 35.52C35.5467 35.52 34.8267 35.16 34.28 34.44C33.4533 33.3733 33.04 31.6533 33.04 29.28C33.04 27.44 33.28 25.5067 33.76 23.48C30.7467 25.48 29.1133 26.5667 28.86 26.74C28.46 29.42 27.9467 31.2467 27.32 32.22C26.72 33.1267 25.96 33.58 25.04 33.58C24.6133 33.58 24.2733 33.4333 24.02 33.14C23.7667 32.8467 23.64 32.4533 23.64 31.96C23.64 30.6133 24.9267 28.9667 27.5 27.02C28.0733 23.4867 28.5867 21.1333 29.04 19.96L26.06 19.74C24.4467 19.74 23.2933 20.3533 22.6 21.58C22.2667 22.1933 22.1 22.8067 22.1 23.42C22.1 23.74 22.14 24.0533 22.22 24.36C22.4733 25.3067 22.9733 25.78 23.72 25.78C23.72 25.8867 23.6667 25.9867 23.56 26.08C23.4667 26.1733 23.34 26.22 23.18 26.22C22.3267 26.22 21.7333 25.78 21.4 24.9C21.2533 24.5133 21.18 24.0733 21.18 23.58C21.18 23.0867 21.32 22.5267 21.6 21.9C22.1467 20.6467 23.0667 19.8333 24.36 19.46C24.8133 19.3267 25.3 19.26 25.82 19.26ZM39.98 16.2C39.98 15.6933 39.7667 15.44 39.34 15.44C38.6467 15.44 37.9533 16.0067 37.26 17.14C36.58 18.26 35.9867 19.7133 35.48 21.5C36.9067 20.46 38.0133 19.5133 38.8 18.66C39.5867 17.7933 39.98 16.9733 39.98 16.2ZM24.16 31.98C24.16 32.7133 24.44 33.08 25 33.08C25.5733 33.08 26.0333 32.6333 26.38 31.74C26.7267 30.8467 27.0533 29.54 27.36 27.82C25.2267 29.4733 24.16 30.86 24.16 31.98Z" fill="#7F49C5" fill-opacity="0.44" shape-rendering="crispEdges"/>
</g>
<g filter="url(#filter1_d_597_14)">
<path d="M20.12 6.96L18.9 6.58C18.26 7.56667 17.58 9.34 16.86 11.9C16.5667 12.9133 16.24 13.9867 15.88 15.12C15.5333 16.24 15.1267 17.2933 14.66 18.28C14.2067 19.2533 13.68 20.14 13.08 20.94C12.4933 21.74 11.76 22.3733 10.88 22.84C10 23.3067 9.01333 23.54 7.92 23.54C5.96 23.54 4.53333 22.84 3.64 21.44C3.14667 20.6533 2.9 19.8067 2.9 18.9C2.9 18.5267 2.94 18.1467 3.02 17.76C3.3 16.4667 3.93333 15.5467 4.92 15C5.44 14.7067 6.02 14.56 6.66 14.56C8.03333 14.56 8.96 15.0933 9.44 16.16C9.64 16.6 9.74 17.0533 9.74 17.52C9.74 17.9733 9.64667 18.4333 9.46 18.9C9.00667 20.02 8.26667 20.58 7.24 20.58C7.08 20.58 6.94667 20.5467 6.84 20.48C6.73333 20.4 6.65333 20.2867 6.6 20.14C6.96 20.14 7.3 20.0467 7.62 19.86C8.15333 19.54 8.56667 18.96 8.86 18.12C8.95333 17.84 9 17.6133 9 17.44C9 17.2533 8.98667 17.0467 8.96 16.82C8.93333 16.58 8.84667 16.3067 8.7 16C8.55333 15.6933 8.3 15.4467 7.94 15.26C7.58 15.0733 7.15333 14.98 6.66 14.98C5.39333 14.98 4.46 15.54 3.86 16.66C3.51333 17.3 3.34 17.9067 3.34 18.48C3.34 19.0533 3.4 19.5667 3.52 20.02C3.86667 21.2867 4.59333 22.16 5.7 22.64C6.22 22.8667 6.88 22.98 7.68 22.98C8.48 22.98 9.28667 22.7533 10.1 22.3C10.9267 21.86 11.6333 21.26 12.22 20.5C12.82 19.7267 13.36 18.8667 13.84 17.92C14.32 16.9733 14.7533 15.9533 15.14 14.86C15.54 13.7533 15.9 12.7067 16.22 11.72C17.0733 9.18667 17.8133 7.42 18.44 6.42C16.4267 5.79333 14.9667 5.48 14.06 5.48C12.34 5.48 11.06 6.13333 10.22 7.44C9.74 8.18667 9.5 8.95333 9.5 9.74C9.5 9.96667 9.52667 10.2 9.58 10.44C9.72667 11.32 10.12 11.8467 10.76 12.02C10.88 12.0467 11 12.06 11.12 12.06C11.04 12.34 10.82 12.48 10.46 12.48C9.64667 12.48 9.07333 12.0467 8.74 11.18C8.58 10.7667 8.5 10.3067 8.5 9.8C8.5 9.29333 8.63333 8.72667 8.9 8.1C9.46 6.75333 10.4467 5.83333 11.86 5.34C12.5267 5.11333 13.2867 5 14.14 5C15.0067 5 16.5267 5.34667 18.7 6.04C19.3533 5.10667 20.1 4.64 20.94 4.64C21.0467 4.64 21.1267 4.67333 21.18 4.74C21.2333 4.80667 21.2667 4.9 21.28 5.02C20.4933 5.02 19.7933 5.41333 19.18 6.2C19.78 6.38667 20.1667 6.51333 20.34 6.58C20.9 5.60667 21.4267 5.12 21.92 5.12C22.1467 5.12 22.28 5.18667 22.32 5.32L22.34 5.38C21.9667 5.38 21.5733 5.87333 21.16 6.86L24.02 7.78C24.9133 6.1 25.8467 5.26 26.82 5.26C26.9533 5.26 27.06 5.29333 27.14 5.36C27.22 5.42667 27.2733 5.52667 27.3 5.66C26.3 5.66 25.38 6.42 24.54 7.94C25.26 8.12667 25.7067 8.23333 25.88 8.26C26.6667 6.7 27.3733 5.92 28 5.92C28.2267 5.92 28.36 5.98667 28.4 6.12L28.42 6.18C27.98 6.18 27.4467 6.92 26.82 8.4C26.9133 8.41333 27.04 8.42 27.2 8.42C28.52 8.42 29.4467 8.02667 29.98 7.24C30.2067 6.93333 30.32 6.67333 30.32 6.46C30.32 5.86 30.0533 5.56 29.52 5.56C29.64 5.37333 29.8333 5.28 30.1 5.28C30.62 5.28 30.96 5.54 31.12 6.06C31.16 6.22 31.18 6.37333 31.18 6.52C31.18 6.96 30.9933 7.39333 30.62 7.82C29.9667 8.54 28.96 8.9 27.6 8.9C27.28 8.9 26.9667 8.87333 26.66 8.82C26.0733 10.3267 25.5667 12.0667 25.14 14.04C24.7267 16.0133 24.52 17.7733 24.52 19.32C24.52 20.8667 24.8333 21.64 25.46 21.64C25.3267 21.9067 25.1333 22.04 24.88 22.04C23.84 22.04 23.32 20.9 23.32 18.62C23.32 17.2733 23.5333 15.6733 23.96 13.82C24.3867 11.9533 24.9667 10.2267 25.7 8.64C25.3533 8.57333 24.9 8.46 24.34 8.3C23.7533 9.44667 23.1333 11.1267 22.48 13.34C21.84 15.54 21.2667 17.3467 20.76 18.76C20.2667 20.1733 19.7667 20.88 19.26 20.88C18.2467 20.88 17.74 19.6667 17.74 17.24C17.74 15.76 17.9533 14.0267 18.38 12.04C18.82 10.0533 19.4 8.36 20.12 6.96ZM19.08 18.06C19.08 19.18 19.2133 19.74 19.48 19.74C19.76 19.74 20.1 19.1 20.5 17.82C20.9133 16.54 21.42 14.9 22.02 12.9C22.6333 10.9 23.2333 9.32 23.82 8.16C22.62 7.78667 21.68 7.48667 21 7.26C20.4133 8.83333 19.9267 10.8667 19.54 13.36C19.2333 15.3733 19.08 16.94 19.08 18.06Z" fill="#7F49C5" fill-opacity="0.44" shape-rendering="crispEdges"/>
</g>
<defs>
<filter id="filter0_d_597_14" x="19.18" y="15" width="23.32" height="26.52" filterUnits="userSpaceOnUse" color-interpolation-filters="sRGB">
<feFlood flood-opacity="0" result="BackgroundImageFix"/>
<feColorMatrix in="SourceAlpha" type="matrix" values="0 0 0 0 0 0 0 0 0 0 0 0 0 0 0 0 0 0 127 0" result="hardAlpha"/>
<feOffset dy="4"/>
<feGaussianBlur stdDeviation="1"/>
<feComposite in2="hardAlpha" operator="out"/>
<feColorMatrix type="matrix" values="0 0 0 0 0.498039 0 0 0 0 0.286275 0 0 0 0 0.772549 0 0 0 0.21 0"/>
<feBlend mode="normal" in2="BackgroundImageFix" result="effect1_dropShadow_597_14"/>
<feBlend mode="normal" in="SourceGraphic" in2="effect1_dropShadow_597_14" result="shape"/>
</filter>
<filter id="filter1_d_597_14" x="0.900024" y="4.64" width="32.28" height="24.9" filterUnits="userSpaceOnUse" color-interpolation-filters="sRGB">
<feFlood flood-opacity="0" result="BackgroundImageFix"/>
<feColorMatrix in="SourceAlpha" type="matrix" values="0 0 0 0 0 0 0 0 0 0 0 0 0 0 0 0 0 0 127 0" result="hardAlpha"/>
<feOffset dy="4"/>
<feGaussianBlur stdDeviation="1"/>
<feComposite in2="hardAlpha" operator="out"/>
<feColorMatrix type="matrix" values="0 0 0 0 0.498039 0 0 0 0 0.286275 0 0 0 0 0.772549 0 0 0 0.21 0"/>
<feBlend mode="normal" in2="BackgroundImageFix" result="effect1_dropShadow_597_14"/>
<feBlend mode="normal" in="SourceGraphic" in2="effect1_dropShadow_597_14" result="shape"/>
</filter>
</defs>
</svg>

<svg width="43" height="42" fill="none" xmlns="http://www.w3.org/2000/svg"><g filter="url(#filter0_d_597_14)"><path d="M25.82 19.26l3.42.22c.64-1.453 1.46-2.18 2.46-2.18.187 0 .313.087.38.26l.02.08c-.813 0-1.453.593-1.92 1.78 1.347-.213 2.293-.787 2.84-1.72.213-.373.32-.673.32-.9 0-.533-.187-.8-.56-.8.08-.227.24-.34.48-.34.453 0 .68.313.68.94 0 .613-.247 1.213-.74 1.8-.72.867-1.787 1.373-3.2 1.52-.293.96-.533 2.16-.72 3.6a226.11 226.11 0 01-.32 2.42c.507-.36 1.38-.953 2.62-1.78 1.24-.827 2.047-1.367 2.42-1.62.6-2.173 1.373-3.973 2.32-5.4.96-1.427 1.967-2.14 3.02-2.14.36 0 .64.113.84.34.213.227.32.52.32.88 0 .973-.467 1.967-1.4 2.98-.933 1.013-2.233 2.107-3.9 3.28-.6 2.413-.9 4.747-.9 7 0 2 .287 3.493.86 4.48.453.773 1.067 1.16 1.84 1.16-.08.267-.267.4-.56.4-.893 0-1.613-.36-2.16-1.08-.827-1.067-1.24-2.787-1.24-5.16 0-1.84.24-3.773.72-5.8-3.013 2-4.647 3.087-4.9 3.26-.4 2.68-.913 4.507-1.54 5.48-.6.907-1.36 1.36-2.28 1.36-.427 0-.767-.147-1.02-.44-.253-.293-.38-.687-.38-1.18 0-1.347 1.287-2.993 3.86-4.94.573-3.533 1.087-5.887 1.54-7.06l-2.98-.22c-1.613 0-2.767.613-3.46 1.84-.333.613-.5 1.227-.5 1.84 0 .32.04.633.12.94.253.947.753 1.42 1.5 1.42 0 .107-.053.207-.16.3a.514.514 0 01-.38.14c-.853 0-1.447-.44-1.78-1.32a3.703 3.703 0 01-.22-1.32c0-.493.14-1.053.42-1.68.547-1.253 1.467-2.067 2.76-2.44.453-.133.94-.2 1.46-.2zm14.16-3.06c0-.507-.213-.76-.64-.76-.693 0-1.387.567-2.08 1.7-.68 1.12-1.273 2.573-1.78 4.36 1.427-1.04 2.533-1.987 3.32-2.84.787-.867 1.18-1.687 1.18-2.46zM24.16 31.98c0 .733.28 1.1.84 1.1.573 0 1.033-.447 1.38-1.34s.673-2.2.98-3.92c-2.133 1.653-3.2 3.04-3.2 4.16z" fill="#7F49C5" fill-opacity=".44" shape-rendering="crispEdges"/></g><g filter="url(#filter1_d_597_14)"><path d="M20.12 6.96l-1.22-.38c-.64.987-1.32 2.76-2.04 5.32-.293 1.013-.62 2.087-.98 3.22a23.933 23.933 0 01-1.22 3.16c-.453.973-.98 1.86-1.58 2.66a6.428 6.428 0 01-2.2 1.9c-.88.467-1.867.7-2.96.7-1.96 0-3.387-.7-4.28-2.1a4.695 4.695 0 01-.74-2.54c0-.373.04-.753.12-1.14.28-1.293.913-2.213 1.9-2.76a3.48 3.48 0 011.74-.44c1.373 0 2.3.533 2.78 1.6.2.44.3.893.3 1.36 0 .453-.093.913-.28 1.38-.453 1.12-1.193 1.68-2.22 1.68a.741.741 0 01-.4-.1.718.718 0 01-.24-.34c.36 0 .7-.093 1.02-.28.533-.32.947-.9 1.24-1.74.093-.28.14-.507.14-.68 0-.187-.013-.393-.04-.62A2.616 2.616 0 008.7 16c-.147-.307-.4-.553-.76-.74-.36-.187-.787-.28-1.28-.28-1.267 0-2.2.56-2.8 1.68-.347.64-.52 1.247-.52 1.82s.06 1.087.18 1.54c.347 1.267 1.073 2.14 2.18 2.62.52.227 1.18.34 1.98.34s1.607-.227 2.42-.68a6.532 6.532 0 002.12-1.8 15.99 15.99 0 001.62-2.58c.48-.947.913-1.967 1.3-3.06.4-1.107.76-2.153 1.08-3.14.853-2.533 1.593-4.3 2.22-5.3-2.013-.627-3.473-.94-4.38-.94-1.72 0-3 .653-3.84 1.96-.48.747-.72 1.513-.72 2.3 0 .227.027.46.08.7.147.88.54 1.407 1.18 1.58.12.027.24.04.36.04-.08.28-.3.42-.66.42-.813 0-1.387-.433-1.72-1.3A3.795 3.795 0 018.5 9.8c0-.507.133-1.073.4-1.7.56-1.347 1.547-2.267 2.96-2.76.667-.227 1.427-.34 2.28-.34.867 0 2.387.347 4.56 1.04.653-.933 1.4-1.4 2.24-1.4.107 0 .187.033.24.1.053.067.087.16.1.28-.787 0-1.487.393-2.1 1.18.6.187.987.313 1.16.38.56-.973 1.087-1.46 1.58-1.46.227 0 .36.067.4.2l.02.06c-.373 0-.767.493-1.18 1.48l2.86.92c.893-1.68 1.827-2.52 2.8-2.52.133 0 .24.033.32.1.08.067.133.167.16.3-1 0-1.92.76-2.76 2.28.72.187 1.167.293 1.34.32.787-1.56 1.493-2.34 2.12-2.34.227 0 .36.067.4.2l.02.06c-.44 0-.973.74-1.6 2.22.093.013.22.02.38.02 1.32 0 2.247-.393 2.78-1.18.227-.307.34-.567.34-.78 0-.6-.267-.9-.8-.9.12-.187.313-.28.58-.28.52 0 .86.26 1.02.78.04.16.06.313.06.46 0 .44-.187.873-.56 1.3-.653.72-1.66 1.08-3.02 1.08-.32 0-.633-.027-.94-.08-.587 1.507-1.093 3.247-1.52 5.22-.413 1.973-.62 3.733-.62 5.28 0 1.547.313 2.32.94 2.32-.133.267-.327.4-.58.4-1.04 0-1.56-1.14-1.56-3.42 0-1.347.213-2.947.64-4.8.427-1.867 1.007-3.593 1.74-5.18-.347-.067-.8-.18-1.36-.34-.587 1.147-1.207 2.827-1.86 5.04-.64 2.2-1.213 4.007-1.72 5.42-.493 1.413-.993 2.12-1.5 2.12-1.013 0-1.52-1.213-1.52-3.64 0-1.48.213-3.213.64-5.2.44-1.987 1.02-3.68 1.74-5.08zm-1.04 11.1c0 1.12.133 1.68.4 1.68.28 0 .62-.64 1.02-1.92.413-1.28.92-2.92 1.52-4.92.613-2 1.213-3.58 1.8-4.74-1.2-.373-2.14-.673-2.82-.9-.587 1.573-1.073 3.607-1.46 6.1-.307 2.013-.46 3.58-.46 4.7z" fill="#7F49C5" fill-opacity=".44" shape-rendering="crispEdges"/></g><defs><filter id="filter0_d_597_14" x="19.18" y="15" width="23.32" height="26.52" filterUnits="userSpaceOnUse" color-interpolation-filters="sRGB"><feFlood flood-opacity="0" result="BackgroundImageFix"/><feColorMatrix in="SourceAlpha" values="0 0 0 0 0 0 0 0 0 0 0 0 0 0 0 0 0 0 127 0" result="hardAlpha"/><feOffset dy="4"/><feGaussianBlur stdDeviation="1"/><feComposite in2="hardAlpha" operator="out"/><feColorMatrix values="0 0 0 0 0.498039 0 0 0 0 0.286275 0 0 0 0 0.772549 0 0 0 0.21 0"/><feBlend in2="BackgroundImageFix" result="effect1_dropShadow_597_14"/><feBlend in="SourceGraphic" in2="effect1_dropShadow_597_14" result="shape"/></filter><filter id="filter1_d_597_14" x=".9" y="4.64" width="32.28" height="24.9" filterUnits="userSpaceOnUse" color-interpolation-filters="sRGB"><feFlood flood-opacity="0" result="BackgroundImageFix"/><feColorMatrix in="SourceAlpha" values="0 0 0 0 0 0 0 0 0 0 0 0 0 0 0 0 0 0 127 0" result="hardAlpha"/><feOffset dy="4"/><feGaussianBlur stdDeviation="1"/><feComposite in2="hardAlpha" operator="out"/><feColorMatrix values="0 0 0 0 0.498039 0 0 0 0 0.286275 0 0 0 0 0.772549 0 0 0 0.21 0"/><feBlend in2="BackgroundImageFix" result="effect1_dropShadow_597_14"/><feBlend in="SourceGraphic" in2="effect1_dropShadow_597_14" result="shape"/></filter></defs></svg>
